<?xml version="1.0" encoding="UTF-8"?>
<map version="1.11" tiledversion="1.11.2" orientation="orthogonal" renderorder="right-down" width="12" height="8" tilewidth="16" tileheight="16" infinite="0" nextlayerid="3" nextobjectid="27">
 <properties>
  <property name="down" type="bool" value="true"/>
  <property name="left" type="bool" value="true"/>
  <property name="right" type="bool" value="true"/>
  <property name="up" type="bool" value="true"/>
 </properties>
 <tileset firstgid="1" source="../Isaac.tsx"/>
 <tileset firstgid="65" source="../Objects.tsx"/>
 <layer id="1" name="Tiles" width="12" height="8">
  <data encoding="csv">
1,1,1,1,1,1,1,2,1,1,1,1,
2,2,1,2,2,2,1,2,1,2,2,1,
2,2,1,1,1,2,1,1,1,1,2,1,
1,2,1,2,2,1,1,2,1,2,2,1,
1,2,2,2,2,1,1,2,1,2,2,1,
1,2,1,1,1,1,1,1,17,2,1,2,
1,2,2,1,2,1,2,2,2,2,2,2,
1,1,1,1,2,1,1,2,1,2,2,2
</data>
 </layer>
 <objectgroup id="2" name="Objects">
  <object id="19" gid="65" x="48" y="96" width="16" height="16"/>
  <object id="20" gid="65" x="32" y="48" width="16" height="16"/>
  <object id="21" gid="65" x="128" y="48" width="16" height="16"/>
  <object id="23" gid="65" x="80" y="80" width="16" height="16"/>
  <object id="24" gid="65" x="96" y="64" width="16" height="16"/>
  <object id="25" gid="98" x="160" y="96" width="16" height="16"/>
  <object id="26" gid="98" x="128" y="128" width="16" height="16"/>
 </objectgroup>
</map>
